X: 8368
T: County Tyrone, The
R: waltz
M: 3/4
K: Dmixolydian
GE|D2 D2 (3DEG|A2 A2 AB|c2 c2 BA|G2 E2 GE|
D2 D2 (3DEG|A2 A2 G2|A2 d2 d2|d3 Bcd||
e2 c2 e2|d2 A2 AB|c2 c2 BA|B2 G2 FG|
A2 d3 A|B2 AF dF|E2 D2 D2|D4 GE||

